src/22/actions/object-order-front.svg

<svg xmlns="http://www.w3.org/2000/svg" viewBox="0 0 22 22">
  <defs id="defs3051">
    <style type="text/css" id="current-color-scheme">
      .ColorScheme-Text {
        color:#5d656b;
      }
      .ColorScheme-Highlight {
        color:#3daee9;
      }
      </style>
  </defs>
 <path 
     style="fill:currentColor;fill-opacity:1;stroke:none" 
     d="M 3 3 L 3 4 L 19 4 L 19 3 L 3 3 z M 6.5 5 L 6.28125 5.2148438 L 3 8.4453125 L 3.71875 9.1542969 L 6 6.9082031 L 6 15.060547 L 6 19 L 7 19 L 7 15.060547 L 7 6.9082031 L 9.28125 9.1542969 L 10 8.4453125 L 6.71875 5.2148438 L 6.5 5 z M 11 5 L 11 6 L 19 6 L 19 5 L 11 5 z M 12 7 L 12 8 L 19 8 L 19 7 L 12 7 z M 15 9 L 15 10 L 19 10 L 19 9 L 15 9 z M 10 11 L 10 12 L 19 12 L 19 11 L 10 11 z M 12 13 L 12 14 L 19 14 L 19 13 L 12 13 z M 16 15 L 16 16 L 19 16 L 19 15 L 16 15 z M 10 17 L 10 18 L 19 18 L 19 17 L 10 17 z "
     class="ColorScheme-Text"
     />
</svg>

<svg xmlns="http://www.w3.org/2000/svg" viewBox="0 0 22 22"><defs id="defs3051"><style type="text/css" id="current-color-scheme"></style></defs><path d="M3 3v1h16V3H3zm3.5 2l-.219.215L3 8.445l.719.71L6 6.907V19h1V6.908l2.281 2.246.719-.709-3.281-3.23L6.5 5zM11 5v1h8V5h-8zm1 2v1h7V7h-7zm3 2v1h4V9h-4zm-5 2v1h9v-1h-9zm2 2v1h7v-1h-7zm4 2v1h3v-1h-3zm-6 2v1h9v-1h-9z" fill="currentColor" color="#5d656b"/></svg>
